public/new/svg1.svg

<svg fill="none" height="28" viewBox="0 0 29 28" width="29" xmlns="http://www.w3.org/2000/svg"><g fill="#77787e"><path d="m17.6299 11v6h3v-6zm-.5-1h4c.1326 0 .2598.0527.3535.1464.0938.0938.1465.221.1465.3536v7c0 .1326-.0527.2598-.1465.3536-.0937.0937-.2209.1464-.3535.1464h-4c-.1326 0-.2598-.0527-.3536-.1464-.0937-.0938-.1464-.221-.1464-.3536v-7c0-.1326.0527-.2598.1464-.3536.0938-.0937.221-.1464.3536-.1464z"/><path d="m18.6299 7h1v3.5h-1zm0 10.5h1v3.5h-1z"/><path d="m9.62988 8v12h3.00002v-12zm-.5-1h4.00002c.1326 0 .2598.05268.3535.14645.0938.09376.1465.22094.1465.35355v13c0 .1326-.0527.2598-.1465.3536-.0937.0937-.2209.1464-.3535.1464h-4.00002c-.13261 0-.25978-.0527-.35355-.1464-.09377-.0938-.14645-.221-.14645-.3536v-13c0-.13261.05268-.25979.14645-.35355.09377-.09377.22094-.14645.35355-.14645z"/><path d="m10.6299 4h1v3.5h-1zm0 16.5h1v3.5h-1z"/></g></svg>

<svg width="29" height="28" viewBox="0 0 29 28" fill="none" xmlns="http://www.w3.org/2000/svg">
<path d="M17.6299 11V17H20.6299V11H17.6299ZM17.1299 10H21.1299C21.2625 10 21.3897 10.0527 21.4834 10.1464C21.5772 10.2402 21.6299 10.3674 21.6299 10.5V17.5C21.6299 17.6326 21.5772 17.7598 21.4834 17.8536C21.3897 17.9473 21.2625 18 21.1299 18H17.1299C16.9973 18 16.8701 17.9473 16.7763 17.8536C16.6826 17.7598 16.6299 17.6326 16.6299 17.5V10.5C16.6299 10.3674 16.6826 10.2402 16.7763 10.1464C16.8701 10.0527 16.9973 10 17.1299 10Z" fill="#77787E"/>
<path d="M18.6299 7H19.6299V10.5H18.6299V7ZM18.6299 17.5H19.6299V21H18.6299V17.5Z" fill="#77787E"/>
<path d="M9.62988 8V20H12.6299V8H9.62988ZM9.12988 7H13.1299C13.2625 7 13.3897 7.05268 13.4834 7.14645C13.5772 7.24021 13.6299 7.36739 13.6299 7.5V20.5C13.6299 20.6326 13.5772 20.7598 13.4834 20.8536C13.3897 20.9473 13.2625 21 13.1299 21H9.12988C8.99727 21 8.8701 20.9473 8.77633 20.8536C8.68256 20.7598 8.62988 20.6326 8.62988 20.5V7.5C8.62988 7.36739 8.68256 7.24021 8.77633 7.14645C8.8701 7.05268 8.99727 7 9.12988 7Z" fill="#77787E"/>
<path d="M10.6299 4H11.6299V7.5H10.6299V4ZM10.6299 20.5H11.6299V24H10.6299V20.5Z" fill="#77787E"/>
</svg>
